X:1
T:Bringing Our Sheaves with Us
T:Bringing Our Sheaves with Us
T:Henry S. Rupp (1826–1898)
T:Elizabeth Anne Chase Taylor Akers Allen, 1858
T:Public Domain Courtesy of the Cyber Hymnal™
T:Public Domain Courtesy of the Cyber Hymnal™
C:Henry S. Rupp (1826–1898)
Z:Public Domain
Z:Courtesy of the Cyber Hymnal™
%%score ( 1 2 ) ( 3 4 )
L:1/8
Q:1/4=97
M:4/4
K:F
V:1 treble 
V:2 treble 
V:3 bass 
V:4 bass 
V:1
 [CF]2 [CF]>[CG] [FA]3 [FG] | [FA][CG][DF][B,D] [A,C]4 | [CF]2 [CF]>[CG] [FA]3 [FB] | %3
w: 1.~The time for toil is|past, and night has come,|The last and sad- dest|
w: 2.~Last of the la- bor-|ers, Thy feet I gain,|Lord of the Har- vest!|
w: 3.~Few, light, and worth- less—|yet their trif- ling weight|Through all my frame a|
w: 4.~Full well I know I|have more tares than wheat,|Bram- bles and flowers, dry|
w: 5.~I know these blos- soms,|clus- tering heav- i- ly|With even- ing dew up-|
w: 6.~So do I ga- ther|strength and hope a- new;|For well I know Thy|
 [FA][CG][CF][CE] [CF]4 | [FA]2 [FA]>[FB] [Fc]3 [Fd] | [Fc][FB][FA][EG] [FA]4 | %6
w: of the har- vest eves;|Worn out with la- bor|long and wear- i- some,|
w: and my spir- it grieves|That I am bur- dened|not so much with grain,|
w: wea- ry ach- ing leaves;|For long I strug- gled|with my hap- less fate,|
w: stalks, and wi- thered leaves;|Where- fore I blush and|weep, as at Thy feet|
w: on their fold- ed leaves,|Can claim no val- ue|nor u- til- i- ty;|
w: pa- tient love per- ceives|Not what I did, but|what I strove to do;|
 [Ac]2 [Ac]>[GB] [FA]3 [Fc] | [Fd][Fc][EB][FA] (A2 G2) | [DF]2 [DF]>[EG] [FA]2 [FB]2 | [FA]6 z2 | %10
w: Droop- ing and faint, the|reap- ers has- ten home, *|Each la- den with his|sheaves,|
w: As with a hea- vi-|ness of heart and brain; *|Mas- ter, be- hold my|sheaves!|
w: And stayed and toiled till|it was dark and late, *|Yet these are all my|sheaves,|
w: I kneel down rev- er-|ent- ly, and re- peat *|“Mas- ter, be- hold my|sheaves,”|
w: There- fore shall frag- ran-|cy and beau- ty be *|The glo- ry of my|sheaves,|
w: And, though the full, ripe|ears be sad- ly few, *|Thou will ac- cept my|sheaves,|
 [FB]2 [FA]>[DG] [CF]2 [CE]2 | [CF]6 z2 |] %12
w: Each la- den with his|sheaves.|
w: Mas- ter, be- hold my|sheaves!|
w: Yet these are all my|sheaves.|
w: “Mas- ter, be- hold my|sheaves!”|
w: The glo- ry of my|sheaves.|
w: Thou will ac- cept my|sheaves.|
V:2
 x8 | x8 | x8 | x8 | x8 | x8 | x8 | x4 E4 | x8 | x8 | x8 | x8 |] %12
V:3
 [F,A,]2 [F,A,]>[F,B,] [F,C]3 [F,B,] | [F,C][A,,G,][B,,F,][D,F,] F,4 | %2
 [F,A,]2 [F,A,]>[F,B,] [F,C]3 [B,,D] | [C,C][C,B,][C,A,][C,G,] [F,A,]4 | %4
 [F,C]2 [F,C]>[F,G,] [F,A,]3 [B,,B,] | [C,A,][C,D][C,C][C,C] [F,C]4 | %6
 [F,C]2 [F,C]>[F,C] [F,C]3 [F,A,] | B,[A,C][G,C][F,C] (C2 B,2) | %8
 [D,A,]2 [D,A,]>[C,C] [F,C]2 [F,C]2 | [F,C]6 z2 | [B,,D]2 [B,,C]>[B,,B,] [C,A,]2 [C,G,]2 | %11
 [F,A,]6 z2 |] %12
V:4
 x8 | x4 F,4 | x8 | x8 | x8 | x8 | x8 | B, x2 C,4 x | x8 | x8 | x8 | x8 |] %12

